X: 32677
T: Polar Bear, The
R: jig
M: 6/8
K: Gmajor
|:GFG BGB|d^cd g2B|cee Bdd|ABc E2E|
DFA DFA|f2f f2e|1 d^cd edc|B3 DEF:|2 d^cd bfa|g3 AFE||
K: Dmaj
|:DFA dfa|gfe B2d|~e3 ABc|dcB AFE|
DFA dfa|gfe B2d|~e3 ABc|1 d3 AFE:|2 d3 DEF||

